X: 1
T: Sadie Catches a Wave
C: Pam Weeks
H: taught by Pam Weeks at Maine Fiddle Camp, Aug 12, 2010
R: reel
Z: 2010 John Chambers <jc:trillian.mit.edu>
M: C|
L: 1/8
K: G
"A"|: GE |\
"G"DEGA BdBG | "D"AcAF "G"GABd | "Em"edef gedB | "Em"e6 ef |
"C"gedB edBG | "G"dBGE AGEG | "D"DEGA "G"BGAF | "G"G6 :|
"B"|: GF |\
"Em"E2B,2 E2EF | GAGF E4 | "Em"B,DEF GABd | e6 ef |
"C"gfga bagf | "G"efed BAGA | "D"dBAB AGED | "G"G6 :|
